storage/app/icons/phosphoricons/regular/rug.svg

<svg xmlns="http://www.w3.org/2000/svg" fill="currentColor" viewBox="0 0 256 256"><path d="M200 16a8 8 0 0 0-8 8v16h-32V24a8 8 0 0 0-16 0v16h-32V24a8 8 0 0 0-16 0v16H64V24a8 8 0 0 0-16 0v208a8 8 0 0 0 16 0v-16h32v16a8 8 0 0 0 16 0v-16h32v16a8 8 0 0 0 16 0v-16h32v16a8 8 0 0 0 16 0V24a8 8 0 0 0-8-8M64 56h128v144H64Zm64 120a8 8 0 0 0 6.86-3.88l24-40a8 8 0 0 0 0-8.24l-24-40a8 8 0 0 0-13.72 0l-24 40a8 8 0 0 0 0 8.24l24 40A8 8 0 0 0 128 176m0-72.45L142.67 128 128 152.45 113.33 128Z"/></svg>

<svg xmlns="http://www.w3.org/2000/svg" viewBox="0 0 256 256" fill="currentColor"><path d="M200,16a8,8,0,0,0-8,8V40H160V24a8,8,0,0,0-16,0V40H112V24a8,8,0,0,0-16,0V40H64V24a8,8,0,0,0-16,0V232a8,8,0,0,0,16,0V216H96v16a8,8,0,0,0,16,0V216h32v16a8,8,0,0,0,16,0V216h32v16a8,8,0,0,0,16,0V24A8,8,0,0,0,200,16ZM64,56H192V200H64Zm64,120a8,8,0,0,0,6.86-3.88l24-40a8,8,0,0,0,0-8.24l-24-40a8,8,0,0,0-13.72,0l-24,40a8,8,0,0,0,0,8.24l24,40A8,8,0,0,0,128,176Zm0-72.45L142.67,128,128,152.45,113.33,128Z"/></svg>
